logos/association-of-korean-neuroscientists.svg

<?xml version="1.0" encoding="UTF-8"?>
<!DOCTYPE svg PUBLIC "-//W3C//DTD SVG 1.1//EN" "http://www.w3.org/Graphics/SVG/1.1/DTD/svg11.dtd">
<svg xmlns="http://www.w3.org/2000/svg" version="1.1" width="131px" height="130px" style="shape-rendering:geometricPrecision; text-rendering:geometricPrecision; image-rendering:optimizeQuality; fill-rule:evenodd; clip-rule:evenodd" xmlns:xlink="http://www.w3.org/1999/xlink">
<g><path style="opacity:0.955" fill="#272122" d="M 14.5,96.5 C 23.4309,110.483 36.0975,119.317 52.5,123C 57.1548,123.499 61.8215,123.666 66.5,123.5C 71.0097,123.729 75.3431,123.062 79.5,121.5C 86.0295,119.899 92.0295,117.233 97.5,113.5C 102.46,110.208 106.793,106.208 110.5,101.5C 114.575,96.3628 117.908,90.6962 120.5,84.5C 124.449,71.364 124.449,58.364 120.5,45.5C 120.443,44.391 120.11,43.391 119.5,42.5C 118.674,39.5152 117.341,36.8485 115.5,34.5C 111.288,26.2846 105.288,19.6179 97.5,14.5C 94.0283,12.2619 90.3617,10.2619 86.5,8.5C 81.0394,6.38514 75.3727,5.05181 69.5,4.5C 63.642,4.1778 57.9753,4.51114 52.5,5.5C 49.8478,5.40953 47.5145,6.07619 45.5,7.5C 40.749,8.71049 36.4156,10.7105 32.5,13.5C 7.86035,28.592 -0.306316,49.9254 8,77.5C 12.118,84.7899 18.2847,89.1232 26.5,90.5C 33.2237,91.9483 39.8903,91.2816 46.5,88.5C 59.365,79.408 64.5317,67.0747 62,51.5C 58.17,49.235 54.0033,48.0683 49.5,48C 49.0426,47.586 48.7093,47.086 48.5,46.5C 50.4264,44.7556 52.7597,43.7556 55.5,43.5C 58.6748,43.1601 60.8415,41.4934 62,38.5C 62.3568,34.4896 62.1901,30.4896 61.5,26.5C 62.675,26.281 63.675,26.6143 64.5,27.5C 65.6076,30.0591 66.9409,32.3924 68.5,34.5C 70.0528,37.254 72.3861,38.0874 75.5,37C 79.1943,34.8218 82.8609,32.6552 86.5,30.5C 90.4338,29.6403 94.4338,29.307 98.5,29.5C 102.092,29.698 105.426,30.698 108.5,32.5C 110.555,34.5549 112.221,36.8883 113.5,39.5C 113.632,42.5701 113.299,45.5701 112.5,48.5C 110.518,51.1367 107.852,52.47 104.5,52.5C 104.5,51.1667 104.5,49.8333 104.5,48.5C 105.822,48.67 106.989,48.3366 108,47.5C 109.85,44.4632 109.85,41.4632 108,38.5C 107.329,37.7476 106.496,37.4142 105.5,37.5C 104.547,35.39 102.881,34.2233 100.5,34C 92.6215,32.1817 86.1215,34.3483 81,40.5C 79.872,42.3453 79.372,44.3453 79.5,46.5C 79.7086,47.9217 80.2086,49.255 81,50.5C 83.3031,52.393 85.4698,54.393 87.5,56.5C 87.1131,57.7199 86.2798,58.3865 85,58.5C 83.5936,57.5862 82.0936,56.9195 80.5,56.5C 79.0697,55.4625 77.403,54.7959 75.5,54.5C 72.7374,54.7438 70.5707,56.0771 69,58.5C 66.6923,67.7608 63.0256,76.4275 58,84.5C 44.5785,96.8745 29.7452,98.7079 13.5,90C 3.97641,82.2828 -0.356923,72.2828 0.5,60C 1.72116,37.791 11.7212,20.791 30.5,9C 48.7919,-0.333117 67.7919,-1.99978 87.5,4C 116.34,17.1968 129.84,39.6968 128,71.5C 123.764,97.7306 109.264,115.564 84.5,125C 52.8924,133.024 27.7258,123.857 9,97.5C 8.50649,95.8659 8.33982,94.1992 8.5,92.5C 11.5221,92.3419 13.5221,93.6752 14.5,96.5 Z M 108.5,32.5 C 110.894,33.0147 113.228,33.6814 115.5,34.5C 117.341,36.8485 118.674,39.5152 119.5,42.5C 117.784,40.9752 115.784,39.9752 113.5,39.5C 112.221,36.8883 110.555,34.5549 108.5,32.5 Z M 105.5,37.5 C 101.958,37.1872 98.6248,37.5206 95.5,38.5C 89.3843,39.5579 84.0509,42.2245 79.5,46.5C 79.372,44.3453 79.872,42.3453 81,40.5C 86.1215,34.3483 92.6215,32.1817 100.5,34C 102.881,34.2233 104.547,35.39 105.5,37.5 Z"/></g>
<g><path style="opacity:0.716" fill="#e86965" d="M 52.5,5.5 C 57.9753,4.51114 63.642,4.1778 69.5,4.5C 69.8274,14.6806 69.494,24.6806 68.5,34.5C 66.9409,32.3924 65.6076,30.0591 64.5,27.5C 63.675,26.6143 62.675,26.281 61.5,26.5C 62.1901,30.4896 62.3568,34.4896 62,38.5C 60.8415,41.4934 58.6748,43.1601 55.5,43.5C 55.5,30.8333 55.5,18.1667 55.5,5.5C 54.5,5.5 53.5,5.5 52.5,5.5 Z"/></g>
<g><path style="opacity:0.58" fill="#ed867c" d="M 69.5,4.5 C 75.3727,5.05181 81.0394,6.38514 86.5,8.5C 86.5,15.8333 86.5,23.1667 86.5,30.5C 82.8609,32.6552 79.1943,34.8218 75.5,37C 72.3861,38.0874 70.0528,37.254 68.5,34.5C 69.494,24.6806 69.8274,14.6806 69.5,4.5 Z"/></g>
<g><path style="opacity:0.837" fill="#e65659" d="M 52.5,5.5 C 53.5,5.5 54.5,5.5 55.5,5.5C 55.5,18.1667 55.5,30.8333 55.5,43.5C 52.7597,43.7556 50.4264,44.7556 48.5,46.5C 48.7093,47.086 49.0426,47.586 49.5,48C 54.0033,48.0683 58.17,49.235 62,51.5C 64.5317,67.0747 59.365,79.408 46.5,88.5C 46.8312,61.3282 46.4979,34.3282 45.5,7.5C 47.5145,6.07619 49.8478,5.40953 52.5,5.5 Z"/></g>
<g><path style="opacity:0.915" fill="#e5414d" d="M 45.5,7.5 C 46.4979,34.3282 46.8312,61.3282 46.5,88.5C 39.8903,91.2816 33.2237,91.9483 26.5,90.5C 28.8333,90.5 31.1667,90.5 33.5,90.5C 33.8311,64.6612 33.4978,38.9946 32.5,13.5C 36.4156,10.7105 40.749,8.71049 45.5,7.5 Z"/></g>
<g><path style="opacity:0.39" fill="#f0a69a" d="M 86.5,8.5 C 90.3617,10.2619 94.0283,12.2619 97.5,14.5C 96.8367,16.6413 96.5034,18.9746 96.5,21.5C 96.6205,24.4411 97.2872,27.1078 98.5,29.5C 94.4338,29.307 90.4338,29.6403 86.5,30.5C 86.5,23.1667 86.5,15.8333 86.5,8.5 Z"/></g>
<g><path style="opacity:0.204" fill="#f7cdc3" d="M 97.5,14.5 C 105.288,19.6179 111.288,26.2846 115.5,34.5C 113.228,33.6814 110.894,33.0147 108.5,32.5C 105.426,30.698 102.092,29.698 98.5,29.5C 97.2872,27.1078 96.6205,24.4411 96.5,21.5C 96.5034,18.9746 96.8367,16.6413 97.5,14.5 Z"/></g>
<g><path style="opacity:0.988" fill="#e32744" d="M 32.5,13.5 C 33.4978,38.9946 33.8311,64.6612 33.5,90.5C 31.1667,90.5 28.8333,90.5 26.5,90.5C 18.2847,89.1232 12.118,84.7899 8,77.5C -0.306316,49.9254 7.86035,28.592 32.5,13.5 Z"/></g>
<g><path style="opacity:0.369" fill="#afb1d6" d="M 95.5,38.5 C 98.6248,37.5206 101.958,37.1872 105.5,37.5C 106.496,37.4142 107.329,37.7476 108,38.5C 109.85,41.4632 109.85,44.4632 108,47.5C 106.989,48.3366 105.822,48.67 104.5,48.5C 104.5,49.8333 104.5,51.1667 104.5,52.5C 107.852,52.47 110.518,51.1367 112.5,48.5C 112.5,55.1667 112.5,61.8333 112.5,68.5C 109.438,63.316 104.771,61.316 98.5,62.5C 98.1541,54.2814 97.1541,46.2814 95.5,38.5 Z"/></g>
<g><path style="opacity:1" fill="#e8d70d" d="M 65.5,37.5 C 68.3291,39.9784 71.6625,40.9784 75.5,40.5C 75.2601,43.5788 75.5934,46.5788 76.5,49.5C 72.5164,49.6826 69.3498,51.3493 67,54.5C 65.9114,50.8139 63.7447,47.9806 60.5,46C 63.5956,43.9713 65.2623,41.138 65.5,37.5 Z"/></g>
<g><path style="opacity:1" fill="#1a190a" d="M 67.5,43.5 C 70.5,43.1667 71.8333,44.5 71.5,47.5C 69.8333,47.5 68.1667,47.5 66.5,47.5C 66.4326,46.0413 66.7659,44.7079 67.5,43.5 Z"/></g>
<g><path style="opacity:0.098" fill="#e9e9f2" d="M 120.5,45.5 C 124.449,58.364 124.449,71.364 120.5,84.5C 119.167,71.5 119.167,58.5 120.5,45.5 Z"/></g>
<g><path style="opacity:0.694" fill="#7378b5" d="M 75.5,54.5 C 77.403,54.7959 79.0697,55.4625 80.5,56.5C 78.6921,57.9179 78.0254,59.9179 78.5,62.5C 76.5538,67.3957 74.8872,72.3957 73.5,77.5C 75.3797,77.7709 76.713,77.1042 77.5,75.5C 79.4841,90.4636 80.1507,105.797 79.5,121.5C 75.3431,123.062 71.0097,123.729 66.5,123.5C 67.1481,109.791 66.4814,96.4581 64.5,83.5C 68.3631,73.9112 72.0297,64.2446 75.5,54.5 Z"/></g>
<g><path style="opacity:1" fill="#262225" d="M 78.5,62.5 C 80.1439,62.2865 81.6439,62.6198 83,63.5C 85.1372,68.0838 86.9705,72.7505 88.5,77.5C 86.0099,76.5747 83.5099,75.5747 81,74.5C 79.6153,74.5143 78.4486,74.8476 77.5,75.5C 76.713,77.1042 75.3797,77.7709 73.5,77.5C 74.8872,72.3957 76.5538,67.3957 78.5,62.5 Z"/></g>
<g><path style="opacity:1" fill="#2b2729" d="M 98.5,62.5 C 104.771,61.316 109.438,63.316 112.5,68.5C 112.783,69.2891 113.283,69.9558 114,70.5C 114.497,67.854 114.664,65.1873 114.5,62.5C 115.833,62.5 117.167,62.5 118.5,62.5C 118.5,67.8333 118.5,73.1667 118.5,78.5C 117.127,78.6567 115.793,78.49 114.5,78C 113.335,76.0083 112.002,74.175 110.5,72.5C 109.878,71.3734 109.045,70.3734 108,69.5C 107.502,72.4816 107.335,75.4816 107.5,78.5C 103.821,78.9396 100.488,78.273 97.5,76.5C 94.8621,70.8598 93.5288,71.1931 93.5,77.5C 92.1667,77.5 90.8333,77.5 89.5,77.5C 89.5,72.5 89.5,67.5 89.5,62.5C 90.8333,62.5 92.1667,62.5 93.5,62.5C 93.3398,64.1992 93.5065,65.8659 94,67.5C 95.7073,65.9625 97.2073,64.2959 98.5,62.5 Z"/></g>
<g><path style="opacity:0.369" fill="#a6a8d0" d="M 102.5,63.5 C 103.647,67.6463 103.814,71.9796 103,76.5C 100.684,74.5296 98.8509,72.1963 97.5,69.5C 99.1897,67.4807 100.856,65.4807 102.5,63.5 Z"/></g>
<g><path style="opacity:0.624" fill="#7174a5" d="M 80.5,67.5 C 83.4595,70.2714 83.1261,71.2714 79.5,70.5C 80.1272,69.5832 80.4606,68.5832 80.5,67.5 Z"/></g>
<g><path style="opacity:0.596" fill="#898cc1" d="M 95.5,38.5 C 97.1541,46.2814 98.1541,54.2814 98.5,62.5C 97.2073,64.2959 95.7073,65.9625 94,67.5C 93.5065,65.8659 93.3398,64.1992 93.5,62.5C 92.1667,62.5 90.8333,62.5 89.5,62.5C 89.5,67.5 89.5,72.5 89.5,77.5C 90.8333,77.5 92.1667,77.5 93.5,77.5C 93.5288,71.1931 94.8621,70.8598 97.5,76.5C 96.1667,88.8333 96.1667,101.167 97.5,113.5C 92.0295,117.233 86.0295,119.899 79.5,121.5C 80.1507,105.797 79.4841,90.4636 77.5,75.5C 78.4486,74.8476 79.6153,74.5143 81,74.5C 83.5099,75.5747 86.0099,76.5747 88.5,77.5C 86.9705,72.7505 85.1372,68.0838 83,63.5C 81.6439,62.6198 80.1439,62.2865 78.5,62.5C 78.0254,59.9179 78.6921,57.9179 80.5,56.5C 82.0936,56.9195 83.5936,57.5862 85,58.5C 86.2798,58.3865 87.1131,57.7199 87.5,56.5C 85.4698,54.393 83.3031,52.393 81,50.5C 80.2086,49.255 79.7086,47.9217 79.5,46.5C 84.0509,42.2245 89.3843,39.5579 95.5,38.5 Z"/></g>
<g><path style="opacity:0.216" fill="#cecee7" d="M 113.5,39.5 C 115.784,39.9752 117.784,40.9752 119.5,42.5C 120.11,43.391 120.443,44.391 120.5,45.5C 119.167,58.5 119.167,71.5 120.5,84.5C 117.908,90.6962 114.575,96.3628 110.5,101.5C 109.167,91.8333 109.167,82.1667 110.5,72.5C 112.002,74.175 113.335,76.0083 114.5,78C 115.793,78.49 117.127,78.6567 118.5,78.5C 118.5,73.1667 118.5,67.8333 118.5,62.5C 117.167,62.5 115.833,62.5 114.5,62.5C 114.664,65.1873 114.497,67.854 114,70.5C 113.283,69.9558 112.783,69.2891 112.5,68.5C 112.5,61.8333 112.5,55.1667 112.5,48.5C 113.299,45.5701 113.632,42.5701 113.5,39.5 Z"/></g>
<g><path style="opacity:0.412" fill="#aaabd3" d="M 110.5,72.5 C 109.167,82.1667 109.167,91.8333 110.5,101.5C 106.793,106.208 102.46,110.208 97.5,113.5C 96.1667,101.167 96.1667,88.8333 97.5,76.5C 100.488,78.273 103.821,78.9396 107.5,78.5C 107.335,75.4816 107.502,72.4816 108,69.5C 109.045,70.3734 109.878,71.3734 110.5,72.5 Z"/></g>
<g><path style="opacity:0.877" fill="#5561a9" d="M 64.5,83.5 C 66.4814,96.4581 67.1481,109.791 66.5,123.5C 61.8215,123.666 57.1548,123.499 52.5,123C 36.0975,119.317 23.4309,110.483 14.5,96.5C 29.482,102.668 43.8153,101.501 57.5,93C 60.4529,90.2483 62.7863,87.0816 64.5,83.5 Z"/></g>
</svg>

<svg xmlns="http://www.w3.org/2000/svg" width="131" height="130" style="shape-rendering:geometricPrecision;text-rendering:geometricPrecision;image-rendering:optimizeQuality;fill-rule:evenodd;clip-rule:evenodd"><path style="opacity:.955" fill="#272122" d="M14.5 96.5c8.93 13.983 21.597 22.817 38 26.5 4.655.499 9.322.666 14 .5 4.51.229 8.843-.438 13-2 6.53-1.601 12.53-4.267 18-8a55.546 55.546 0 0 0 13-12c4.075-5.137 7.408-10.804 10-17 3.949-13.136 3.949-26.136 0-39a5.727 5.727 0 0 0-1-3c-.826-2.985-2.159-5.651-4-8-4.212-8.215-10.212-14.882-18-20a86.638 86.638 0 0 0-11-6 63.22 63.22 0 0 0-17-4c-5.858-.322-11.525.011-17 1-2.652-.09-4.986.576-7 2-4.751 1.21-9.084 3.21-13 6C7.86 28.592-.306 49.925 8 77.5c4.118 7.29 10.285 11.623 18.5 13 6.724 1.448 13.39.782 20-2 12.865-9.092 18.032-21.425 15.5-37-3.83-2.265-7.997-3.432-12.5-3.5a3.646 3.646 0 0 1-1-1.5c1.926-1.744 4.26-2.744 7-3 3.175-.34 5.342-2.007 6.5-5 .357-4.01.19-8.01-.5-12 1.175-.219 2.175.114 3 1 1.108 2.56 2.44 4.892 4 7 1.553 2.754 3.886 3.587 7 2.5 3.694-2.178 7.36-4.345 11-6.5a45.793 45.793 0 0 1 12-1c3.592.198 6.926 1.198 10 3a26.006 26.006 0 0 1 5 7 29.23 29.23 0 0 1-1 9c-1.982 2.637-4.648 3.97-8 4v-4c1.322.17 2.489-.163 3.5-1 1.85-3.037 1.85-6.037 0-9-.671-.752-1.504-1.086-2.5-1-.953-2.11-2.619-3.277-5-3.5-7.879-1.818-14.379.348-19.5 6.5a10.1 10.1 0 0 0-1.5 6 10.123 10.123 0 0 0 1.5 4 76.251 76.251 0 0 1 6.5 6c-.387 1.22-1.22 1.886-2.5 2a15.416 15.416 0 0 0-4.5-2c-1.43-1.038-3.097-1.704-5-2-2.763.244-4.93 1.577-6.5 4a90.124 90.124 0 0 1-11 26C44.578 96.874 29.745 98.708 13.5 90 3.976 82.283-.357 72.283.5 60c1.221-22.209 11.221-39.209 30-51 18.292-9.333 37.292-11 57-5 28.84 13.197 42.34 35.697 40.5 67.5-4.236 26.23-18.736 44.064-43.5 53.5-31.608 8.024-56.774-1.143-75.5-27.5-.494-1.634-.66-3.3-.5-5 3.022-.158 5.022 1.175 6 4zm94-64a54.299 54.299 0 0 1 7 2c1.841 2.349 3.174 5.015 4 8-1.716-1.525-3.716-2.525-6-3a26.006 26.006 0 0 0-5-7zm-3 5c-3.542-.313-6.875.02-10 1-6.116 1.058-11.45 3.724-16 8a10.1 10.1 0 0 1 1.5-6c5.121-6.152 11.621-8.318 19.5-6.5 2.381.223 4.047 1.39 5 3.5z"/><path style="opacity:.716" fill="#e86965" d="M52.5 5.5c5.475-.989 11.142-1.322 17-1 .327 10.18-.006 20.18-1 30-1.56-2.108-2.892-4.44-4-7-.825-.886-1.825-1.219-3-1 .69 3.99.857 7.99.5 12-1.158 2.993-3.325 4.66-6.5 5v-38h-3z"/><path style="opacity:.58" fill="#ed867c" d="M69.5 4.5a63.22 63.22 0 0 1 17 4v22c-3.64 2.155-7.306 4.322-11 6.5-3.114 1.087-5.447.254-7-2.5.994-9.82 1.327-19.82 1-30z"/><path style="opacity:.837" fill="#e65659" d="M52.5 5.5h3v38c-2.74.256-5.074 1.256-7 3 .21.586.543 1.086 1 1.5 4.503.068 8.67 1.235 12.5 3.5 2.532 15.575-2.635 27.908-15.5 37a1640.85 1640.85 0 0 0-1-81c2.014-1.424 4.348-2.09 7-2z"/><path style="opacity:.915" fill="#e5414d" d="M45.5 7.5a1640.85 1640.85 0 0 1 1 81c-6.61 2.782-13.276 3.448-20 2h7a1482.82 1482.82 0 0 0-1-77c3.916-2.79 8.249-4.79 13-6z"/><path style="opacity:.39" fill="#f0a69a" d="M86.5 8.5a86.638 86.638 0 0 1 11 6c-.663 2.141-.997 4.475-1 7 .12 2.941.787 5.608 2 8a45.793 45.793 0 0 0-12 1v-22z"/><path style="opacity:.204" fill="#f7cdc3" d="M97.5 14.5c7.788 5.118 13.788 11.785 18 20a54.299 54.299 0 0 0-7-2c-3.074-1.802-6.408-2.802-10-3-1.213-2.392-1.88-5.059-2-8 .003-2.525.337-4.859 1-7z"/><path style="opacity:.988" fill="#e32744" d="M32.5 13.5a1482.82 1482.82 0 0 1 1 77h-7c-8.215-1.377-14.382-5.71-18.5-13-8.306-27.575-.14-48.908 24.5-64z"/><path style="opacity:.369" fill="#afb1d6" d="M95.5 38.5c3.125-.98 6.458-1.313 10-1 .996-.086 1.829.248 2.5 1 1.85 2.963 1.85 5.963 0 9-1.011.837-2.178 1.17-3.5 1v4c3.352-.03 6.018-1.363 8-4v20c-3.062-5.184-7.729-7.184-14-6-.346-8.219-1.346-16.219-3-24z"/><path style="opacity:1" fill="#e8d70d" d="M65.5 37.5c2.83 2.478 6.162 3.478 10 3a23.843 23.843 0 0 0 1 9c-3.984.183-7.15 1.85-9.5 5-1.089-3.686-3.255-6.52-6.5-8.5 3.096-2.029 4.762-4.862 5-8.5z"/><path style="opacity:1" fill="#1a190a" d="M67.5 43.5c3-.333 4.333 1 4 4h-5c-.067-1.459.266-2.792 1-4z"/><path style="opacity:.098" fill="#e9e9f2" d="M120.5 45.5c3.949 12.864 3.949 25.864 0 39-1.333-13-1.333-26 0-39z"/><path style="opacity:.694" fill="#7378b5" d="M75.5 54.5c1.903.296 3.57.962 5 2-1.808 1.418-2.475 3.418-2 6a139.867 139.867 0 0 0-5 15c1.88.27 3.213-.396 4-2 1.984 14.964 2.65 30.297 2 46-4.157 1.562-8.49 2.229-13 2 .648-13.709-.019-27.042-2-40a759.014 759.014 0 0 0 11-29z"/><path style="opacity:1" fill="#262225" d="M78.5 62.5c1.644-.214 3.144.12 4.5 1a120.55 120.55 0 0 1 5.5 14c-2.49-.925-4.99-1.925-7.5-3-1.385.014-2.551.348-3.5 1-.787 1.604-2.12 2.27-4 2a139.867 139.867 0 0 1 5-15z"/><path style="opacity:1" fill="#2b2729" d="M98.5 62.5c6.271-1.184 10.938.816 14 6 .283.79.783 1.456 1.5 2 .497-2.646.664-5.313.5-8h4v16a8.435 8.435 0 0 1-4-.5 33.685 33.685 0 0 0-4-5.5 10.526 10.526 0 0 0-2.5-3 40.911 40.911 0 0 0-.5 9c-3.679.44-7.012-.227-10-2-2.638-5.64-3.971-5.307-4 1h-4v-15h4c-.16 1.7.007 3.366.5 5a31.444 31.444 0 0 0 4.5-5z"/><path style="opacity:.369" fill="#a6a8d0" d="M102.5 63.5c1.147 4.146 1.314 8.48.5 13a22.106 22.106 0 0 1-5.5-7c1.69-2.02 3.356-4.02 5-6z"/><path style="opacity:.624" fill="#7174a5" d="M80.5 67.5c2.96 2.771 2.626 3.771-1 3a5.576 5.576 0 0 0 1-3z"/><path style="opacity:.596" fill="#898cc1" d="M95.5 38.5c1.654 7.781 2.654 15.781 3 24a31.444 31.444 0 0 1-4.5 5c-.493-1.634-.66-3.3-.5-5h-4v15h4c.029-6.307 1.362-6.64 4-1a171.63 171.63 0 0 0 0 37c-5.47 3.733-11.47 6.399-18 8 .65-15.703-.016-31.036-2-46 .949-.652 2.115-.986 3.5-1 2.51 1.075 5.01 2.075 7.5 3a120.55 120.55 0 0 0-5.5-14c-1.356-.88-2.856-1.214-4.5-1-.475-2.582.192-4.582 2-6a15.416 15.416 0 0 1 4.5 2c1.28-.114 2.113-.78 2.5-2a76.251 76.251 0 0 0-6.5-6 10.123 10.123 0 0 1-1.5-4c4.55-4.276 9.884-6.942 16-8z"/><path style="opacity:.216" fill="#cecee7" d="M113.5 39.5c2.284.475 4.284 1.475 6 3 .61.891.943 1.891 1 3-1.333 13-1.333 26 0 39-2.592 6.196-5.925 11.863-10 17a105.651 105.651 0 0 1 0-29 33.685 33.685 0 0 1 4 5.5 8.435 8.435 0 0 0 4 .5v-16h-4a32.462 32.462 0 0 1-.5 8c-.717-.544-1.217-1.21-1.5-2v-20a29.23 29.23 0 0 0 1-9z"/><path style="opacity:.412" fill="#aaabd3" d="M110.5 72.5a105.651 105.651 0 0 0 0 29 55.546 55.546 0 0 1-13 12 171.63 171.63 0 0 1 0-37c2.988 1.773 6.321 2.44 10 2a40.911 40.911 0 0 1 .5-9 10.526 10.526 0 0 1 2.5 3z"/><path style="opacity:.877" fill="#5561a9" d="M64.5 83.5c1.981 12.958 2.648 26.291 2 40a98.433 98.433 0 0 1-14-.5c-16.403-3.683-29.07-12.517-38-26.5 14.982 6.168 29.315 5.001 43-3.5 2.953-2.752 5.286-5.918 7-9.5z"/></svg>
